X: 137
T: SLIDE: Denny Mescall's
C: C: Trad.; S: Various
C: Set Leaders: Mars, Anton
Z: Mars Agliullin ed., Anton Zille ed., Oleg Naumov ed.; Mars at The Session
N: https://thesession.org/members/26966/sets/94265
R: Slide
M: 12/8
L: 1/8
Q: 3/8=130
K: Gmaj
|:"G"B3 BAB dBA G3|"G/B"GBd g2e "C"d2B "D"A2G|
"G"B3 BAB dBA "(D)"G2B|"Em"ded "D"cBA "G"G3 "(C)"G3:||
|:"G"g2g gfe d2B "G/B"c2d|"Cadd9"e2a a2b "D"a2g e2f|
"Em7"g2g gfe "D/B"d2B c2d|"C"efg "D"fgf "G"g3 g3:||

